svgs/solid/face-glasses.svg

<svg xmlns="http://www.w3.org/2000/svg" viewBox="0 0 512 512"><!--! Font Awesome Pro 6.2.0 by @fontawesome - https://fontawesome.com License - https://fontawesome.com/license (Commercial License) Copyright 2022 Fonticons, Inc. --><path d="M512 256c0 141.4-114.6 256-256 256S0 397.4 0 256c0-22.1 2.8-43.5 8.1-64H48v56c0 30.9 25.1 56 56 56h80c30.9 0 56-25.1 56-56V192h32v56c0 30.9 25.1 56 56 56h80c30.9 0 56-25.1 56-56V192h39.9c5.3 20.5 8.1 41.9 8.1 64zM256 0C363.4 0 455.4 66.2 493.4 160H458.6c-9-18.9-28.3-32-50.6-32H328c-22.3 0-41.6 13.1-50.6 32H234.6c-9-18.9-28.3-32-50.6-32H104c-22.3 0-41.6 13.1-50.6 32H18.6C56.6 66.2 148.6 0 256 0zM80 192v-8c0-13.3 10.7-24 24-24h80c13.3 0 24 10.7 24 24v64c0 13.3-10.7 24-24 24H104c-13.3 0-24-10.7-24-24V192zm61.5 147.9c-6.7 5.8-7.4 15.9-1.6 22.6c22.2 25.7 61 53.5 116.1 53.5s93.8-27.9 116.1-53.5c5.8-6.7 5.1-16.8-1.6-22.6s-16.8-5.1-22.6 1.6C330 362.2 299.4 384 256 384s-74-21.8-91.9-42.5c-5.8-6.7-15.9-7.4-22.6-1.6zM304 184c0-13.3 10.7-24 24-24h80c13.3 0 24 10.7 24 24v8 56c0 13.3-10.7 24-24 24H328c-13.3 0-24-10.7-24-24V184zM184.4 224c0-13.3-10.7-24-24-24s-24 10.7-24 24s10.7 24 24 24s24-10.7 24-24zm168 24c13.3 0 24-10.7 24-24s-10.7-24-24-24s-24 10.7-24 24s10.7 24 24 24z"/></svg>

<svg xmlns="http://www.w3.org/2000/svg" viewBox="0 0 512 512"><!--! Font Awesome Pro 6.1.2 by @fontawesome - https://fontawesome.com License - https://fontawesome.com/license (Commercial License) Copyright 2022 Fonticons, Inc. --><path d="M512 256C512 397.4 397.4 512 256 512C114.6 512 0 397.4 0 256C0 233.9 2.8 212.5 8.065 192H48V248C48 278.9 73.07 304 104 304H184C214.9 304 240 278.9 240 248V192H272V248C272 278.9 297.1 304 328 304H408C438.9 304 464 278.9 464 248V192H503.9C509.2 212.5 512 233.9 512 256zM139.9 362.5C162.2 388.1 200.9 416 256 416C311.1 416 349.8 388.1 372.1 362.5C377.9 355.8 377.2 345.7 370.5 339.9C363.8 334.1 353.7 334.8 347.9 341.5C329.1 362.2 299.4 384 255.1 384C212.6 384 182 362.2 164.1 341.5C158.3 334.8 148.2 334.1 141.5 339.9C134.8 345.7 134.1 355.8 139.9 362.5H139.9zM493.4 160H458.6C449.6 141.1 430.3 128 408 128H328C305.7 128 286.4 141.1 277.4 160H234.6C225.6 141.1 206.3 128 184 128H104C81.66 128 62.38 141.1 53.39 160H18.61C56.59 66.18 148.6 0 256 0C363.4 0 455.4 66.18 493.4 160zM80 184C80 170.7 90.75 160 104 160H184C197.3 160 208 170.7 208 184V248C208 261.3 197.3 272 184 272H104C90.75 272 80 261.3 80 248V184zM160.4 200C147.1 200 136.4 210.7 136.4 224C136.4 237.3 147.1 248 160.4 248C173.6 248 184.4 237.3 184.4 224C184.4 210.7 173.6 200 160.4 200zM304 184C304 170.7 314.7 160 328 160H408C421.3 160 432 170.7 432 184V248C432 261.3 421.3 272 408 272H328C314.7 272 304 261.3 304 248V184zM352.4 248C365.6 248 376.4 237.3 376.4 224C376.4 210.7 365.6 200 352.4 200C339.1 200 328.4 210.7 328.4 224C328.4 237.3 339.1 248 352.4 248z"/></svg>
